X: 16277
T: Grey Jay
R: reel
M: 4/4
K: Bminor
FABA FEDE|FABA FEDC|B,3A, B,CDF|B,3A, B,CDF|
FABA FEDE|FABA dcBA|B3A BAFE|F3E DCB,C|
FABA FEDE|FABA FEDC|B,3A, B,CDF|B,3A, B,CDE|
FABA FEDE|FABA dcBA|B3A Bcdf|B2fe dcBA|
BFdc B2fe|dcde fedf|e3d cAce|d3c BAFA|
BFdc B2fe|dcde fedf|e3d cAce|d3c BAFA|
BFdc B2fe|dcde fedf|e3d cAce|d3c BAFA|
BFdc B2fe|dcde faed|c3d ecAc|B6A2||

